X:254
T:Gypsy Dance
S:Athena Tergis https://www.youtube.com/watch?v=We2NFoOtPzc
Z:robin.beech@mcgill.ca
R:reel
M:2/4
L:1/8
K:G
G2 GF | DB, DF | G2 Bc | dg fd | cA Bc | dB cA | BG AG | DG FD |
B,G, CB, | G,B, DF | GA Bc | dg fd | cA Bc | B3A | BG AG | DG FD | G4 ::
G2 ef | gf ga | b2g2 | ag fa | gf d2 | cd- de | fd (3ABc | dc Bd | cB G2 |
GF GA | BG Bc | dg fd | cA Bc | B3A | BG AG | DG FD | G4 :|
